cssgg/external.svg

<svg
  width="24"
  height="24"
  viewBox="0 0 24 24"
  fill="none"
  xmlns="http://www.w3.org/2000/svg"
>
  <path
    d="M15.6396 7.02527H12.0181V5.02527H19.0181V12.0253H17.0181V8.47528L12.1042 13.3892L10.6899 11.975L15.6396 7.02527Z"
    fill="currentColor"
  />
  <path
    d="M10.9819 6.97473H4.98193V18.9747H16.9819V12.9747H14.9819V16.9747H6.98193V8.97473H10.9819V6.97473Z"
    fill="currentColor"
  />
</svg>

<svg viewBox="0 0 24 24" xmlns="http://www.w3.org/2000/svg"><g><path d="M15.63 7.02H12v-2h7v7h-2V8.46l-4.92 4.91 -1.42-1.42L15.6 7Z"/><path d="M10.98 6.97h-6v11.99h11.99v-6h-2v4h-8v-8h3.99v-2Z"/></g></svg>
